icons/svg/seamark/notice_prohibition_nohighspeeds.svg

<?xml version="1.0" encoding="UTF-8" standalone="no"?>
<svg
   xmlns:dc="http://purl.org/dc/elements/1.1/"
   xmlns:cc="http://creativecommons.org/ns#"
   xmlns:rdf="http://www.w3.org/1999/02/22-rdf-syntax-ns#"
   xmlns:svg="http://www.w3.org/2000/svg"
   xmlns="http://www.w3.org/2000/svg"
   xmlns:sodipodi="http://sodipodi.sourceforge.net/DTD/sodipodi-0.dtd"
   xmlns:inkscape="http://www.inkscape.org/namespaces/inkscape"
   width="320"
   height="320"
   id="svg2"
   version="1.1"
   inkscape:version="0.48.4 r9939"
   sodipodi:docname="notice_prohibition_bg.svg">
  <defs
     id="defs13">
    <inkscape:path-effect
       effect="gears"
       id="path-effect3774"
       is_visible="true"
       teeth="6"
       phi="-1.2" />
    <inkscape:path-effect
       effect="bend_path"
       id="path-effect3772"
       is_visible="false"
       bendpath="m 95.790098,316.51174 c 144.429032,-206.42506 223.313032,-11.7428 339.548092,0"
       prop_scale="1.19"
       scale_y_rel="false"
       vertical="false"
       bendpath-nodetypes="cc" />
    <inkscape:path-effect
       effect="spiro"
       id="path-effect3775"
       is_visible="true" />
    <inkscape:path-effect
       effect="spiro"
       id="path-effect3775-9"
       is_visible="true" />
    <inkscape:path-effect
       effect="spiro"
       id="path-effect3775-3"
       is_visible="true" />
    <inkscape:path-effect
       effect="spiro"
       id="path-effect3775-3-4"
       is_visible="true" />
  </defs>
  <sodipodi:namedview
     pagecolor="#ffffff"
     bordercolor="#666666"
     borderopacity="1"
     objecttolerance="10"
     gridtolerance="10"
     guidetolerance="10"
     inkscape:pageopacity="0"
     inkscape:pageshadow="2"
     inkscape:window-width="1920"
     inkscape:window-height="1004"
     id="namedview11"
     showgrid="true"
     inkscape:zoom="2.3017543"
     inkscape:cx="235.33268"
     inkscape:cy="195.46944"
     inkscape:window-x="1680"
     inkscape:window-y="0"
     inkscape:window-maximized="1"
     inkscape:current-layer="svg2"
     inkscape:snap-bbox="true"
     inkscape:object-nodes="true"
     inkscape:snap-midpoints="true"
     inkscape:snap-grids="false"
     inkscape:snap-bbox-edge-midpoints="true"
     showguides="true"
     inkscape:guide-bbox="true">
    <inkscape:grid
       type="xygrid"
       id="grid2990"
       empspacing="5"
       visible="true"
       enabled="true"
       snapvisiblegridlinesonly="true"
       spacingx="10px"
       spacingy="10px"
       dotted="false" />
    <sodipodi:guide
       orientation="1,0"
       position="55.202458,260.58927"
       id="guide3872" />
    <sodipodi:guide
       orientation="1,0"
       position="265.17816,340"
       id="guide3874" />
    <sodipodi:guide
       orientation="0,1"
       position="317.80107,264.96094"
       id="guide3876" />
    <sodipodi:guide
       orientation="0,1"
       position="325.098,54.759006"
       id="guide3878" />
  </sodipodi:namedview>
  <metadata
     id="metadata2975">image/svg+xmlen<rdf:RDF>
  <cc:Work
     rdf:about="">
    <dc:format>image/svg+xml</dc:format>
    <dc:type
       rdf:resource="http://purl.org/dc/dcmitype/StillImage" />
    <dc:title></dc:title>
  </cc:Work>
</rdf:RDF>
</metadata>
  <path
     inkscape:connector-curvature="0"
     style="font-size:40px;font-style:normal;font-variant:normal;font-weight:normal;font-stretch:normal;text-align:start;line-height:125%;writing-mode:lr-tb;text-anchor:start;fill:#000000;fill-opacity:1;stroke:none;font-family:NPSPICT3;-inkscape-font-specification:NPSPICT3"
     d="m 139.7334,127.67595 c 3.36414,-0.0621 6.20774,-1.23849 8.53074,-3.52913 2.32285,-2.29049 3.45343,-5.1197 3.39172,-8.48762 0.0419,-3.23044 -1.07867,-6.03691 -3.36177,-8.41941 -2.28325,-2.38231 -5.10878,-3.54262 -8.47654,-3.48097 -3.34955,-0.0567 -6.18945,1.08998 -8.51969,3.43991 -2.33036,2.35013 -3.45725,5.14959 -3.38068,8.3984 -0.0568,3.34957 1.06009,6.18577 3.35071,8.50859 2.29049,2.32304 5.11233,3.51311 8.46549,3.57023 z m 47.86942,13.06624 -26.23468,-9.59859 c -2.40306,-1.23012 -4.27597,-0.62933 -5.61873,1.80237 l 0,0 c -0.80073,1.67833 -0.58981,3.22161 0.63275,4.62988 l 12.50123,9.28699 -4.57214,9.79657 -19.85998,9.21369 2.03164,-9.38518 10.88721,-3.5017 c 3.34146,-1.34556 4.59962,-3.63195 3.77449,-6.85918 -0.38345,-1.49914 -1.35706,-2.66367 -2.92084,-3.49367 -1.56394,-0.8298 -3.06576,-0.93692 -4.50551,-0.32138 l -7.5416,1.7913 -0.47304,-2.19112 c 0.0388,-3.2345 -1.11315,-6.04668 -3.45573,-8.43654 -2.34275,-2.3897 -5.1367,-3.54612 -8.38192,-3.46925 -3.35315,-0.0571 -6.19484,1.08929 -8.52508,3.43925 -2.33037,2.35012 -3.51674,5.1422 -3.55913,8.37625 l -0.28868,30.8442 c 1.40498,3.57387 0.43732,2.61924 0.43732,2.61924 l -32.223341,14.41035 -0.04506,22.14229 c 3.565,-2.87628 18.704561,-5.22042 22.392781,-6.16354 3.57552,-0.91429 7.29908,-1.00784 11.17071,-0.28066 2.31209,0.39111 4.62071,0.29196 6.92588,-0.29752 2.30857,-0.5903 4.38318,-1.61199 6.22382,-3.06499 2.93108,-2.4667 6.24073,-4.17162 9.92897,-5.11474 2.19243,-0.56063 5.26659,-0.67184 9.2225,-0.33366 3.95577,0.33829 6.91379,0.25676 8.87408,-0.24452 2.30856,-0.5903 4.38316,-1.61198 6.22384,-3.065 3.04717,-2.49639 6.41489,-4.21615 10.10317,-5.15929 2.30852,-0.59031 4.6176,-0.81236 6.92719,-0.66623 2.3094,0.14623 4.60536,0.3568 6.88791,0.63172 27.40176,-15.36048 35.37139,-29.60363 37.59902,-38.58372 2.91943,-11.76892 1.891,-21.10623 1.891,-21.10623 0,0 -16.64159,0.98755 -46.43005,12.35261 z m 32.61197,65.67824 c -2.13205,-0.21944 -5.15936,0.12718 -9.08194,1.03988 -3.92286,0.91269 -6.89054,1.26546 -8.90309,1.05833 -2.13203,-0.21944 -5.02528,-1.17544 -8.67973,-2.86803 -3.65468,-1.69258 -10.80285,-5.81974 -12.80551,-5.53222 -2.12153,0.30459 -2.90056,0.1468 -6.48437,1.98426 -3.584,1.83751 -6.43667,2.90854 -8.55801,3.2131 -2.11789,0.30407 -5.12609,0.0745 -9.0246,-0.68877 -3.89864,-0.76321 -6.90865,-0.99252 -9.02999,-0.68796 -2.11788,0.30406 -4.93999,1.37069 -8.46631,3.1999 -3.52643,1.82925 -6.35033,2.89615 -8.47169,3.20071 -2.11788,0.30407 -5.12608,0.0745 -9.02461,-0.68877 -3.89861,-0.76321 -6.90861,-0.99253 -9.02999,-0.68796 -2.12145,0.30457 -4.97411,1.37559 -8.558,3.21307 -3.58393,1.8375 -12.084459,4.10327 -14.205852,4.40784 l -0.102826,11.81495 c 2.121393,-0.30457 12.576948,-1.48423 16.160888,-3.32168 3.58388,-1.83751 6.43654,-2.90853 8.558,-3.21311 2.00272,-0.28753 4.98306,-0.0539 8.941,0.70078 3.95786,0.75467 6.99571,0.98003 9.1136,0.67596 2.12135,-0.30456 4.94525,-1.37148 8.47169,-3.20068 3.52631,-1.82924 6.34843,-2.89587 8.46631,-3.19994 2.12134,-0.30456 5.13135,-0.0752 9.02999,0.688 3.8985,0.7632 6.9067,0.99281 9.0246,0.68874 2.12134,-0.30456 4.974,-1.37561 8.55801,-3.21307 3.5838,-1.83749 3.05722,-1.6029 5.17874,-1.90749 2.00266,-0.28752 7.26984,3.82664 10.92452,5.51924 3.65447,1.69254 6.54771,2.64856 8.67974,2.868 2.01255,0.20714 4.98023,-0.14565 8.90309,-1.0583 3.92258,-0.91273 6.9499,-1.25935 9.08195,-1.03991 2.13175,0.21941 4.99518,1.17234 8.59031,2.85882 1.55956,0.68798 2.41431,1.52027 3.12557,2.16211 l -0.0776,-13.89738 c -0.74728,-0.73536 -1.16476,-0.97215 -1.7136,-1.22963 -3.59513,-1.68645 -6.45856,-2.63938 -8.59033,-2.85879 z"
     id="flowRoot3192"
     sodipodi:nodetypes="cscccccccccccccccccccccccccscccccscccscccsccsccccscscscssscsscccssscssscssscscccccc" />
</svg>

<svg width="320" height="320" viewBox="0 0 320 320" fill="none" xmlns="http://www.w3.org/2000/svg">
<path d="M139.733 127.676C143.098 127.614 145.941 126.438 148.264 124.147C150.587 121.857 151.718 119.027 151.656 115.66C151.698 112.429 150.577 109.623 148.294 107.24C146.011 104.858 143.185 103.698 139.818 103.759C136.468 103.702 133.628 104.849 131.298 107.199C128.967 109.549 127.841 112.349 127.917 115.597C127.86 118.947 128.977 121.783 131.268 124.106C133.558 126.429 136.38 127.619 139.733 127.676H139.733ZM187.603 140.743L161.368 131.144C158.965 129.914 157.092 130.515 155.749 132.946C154.949 134.625 155.16 136.168 156.382 137.576L168.883 146.863L164.311 156.66L144.451 165.873L146.483 156.488L157.37 152.987C160.712 151.641 161.97 149.355 161.145 146.127C160.761 144.628 159.788 143.464 158.224 142.634C156.66 141.804 155.158 141.697 153.718 142.312L146.177 144.104L145.704 141.913C145.742 138.678 144.59 135.866 142.248 133.476C139.905 131.086 137.111 129.93 133.866 130.007C130.513 129.95 127.671 131.096 125.341 133.446C123.011 135.796 121.824 138.588 121.782 141.822L121.493 172.666C122.898 176.24 121.93 175.286 121.93 175.286L89.707 189.696L89.662 211.838C93.227 208.962 108.367 206.618 112.055 205.675C115.63 204.76 119.354 204.667 123.225 205.394C125.538 205.785 127.846 205.686 130.151 205.097C132.46 204.506 134.535 203.485 136.375 202.032C139.306 199.565 142.616 197.86 146.304 196.917C148.497 196.356 151.571 196.245 155.527 196.583C159.482 196.921 162.44 196.84 164.401 196.339C166.709 195.748 168.784 194.727 170.625 193.274C173.672 190.777 177.039 189.058 180.728 188.114C183.036 187.524 185.345 187.302 187.655 187.448C189.964 187.594 192.26 187.805 194.543 188.08C221.945 172.719 229.914 158.476 232.142 149.496C235.061 137.727 234.033 128.39 234.033 128.39C234.033 128.39 217.391 129.377 187.603 140.743V140.743ZM220.215 206.421C218.083 206.201 215.055 206.548 211.133 207.461C207.21 208.373 204.242 208.726 202.23 208.519C200.098 208.3 197.204 207.344 193.55 205.651C189.895 203.958 182.747 199.831 180.745 200.119C178.623 200.423 177.844 200.266 174.26 202.103C170.676 203.941 167.823 205.012 165.702 205.316C163.584 205.62 160.576 205.391 156.678 204.627C152.779 203.864 149.769 203.635 147.648 203.939C145.53 204.243 142.708 205.31 139.181 207.139C135.655 208.969 132.831 210.035 130.71 210.34C128.592 210.644 125.583 210.414 121.685 209.651C117.786 208.888 114.776 208.659 112.655 208.963C110.533 209.268 107.681 210.339 104.097 212.176C100.513 214.014 92.0125 216.28 89.8911 216.584L89.7883 228.399C91.9096 228.095 102.365 226.915 105.949 225.077C109.533 223.24 112.386 222.169 114.507 221.864C116.51 221.577 119.49 221.81 123.448 222.565C127.406 223.32 130.444 223.545 132.562 223.241C134.683 222.936 137.507 221.87 141.033 220.04C144.56 218.211 147.382 217.145 149.5 216.84C151.621 216.536 154.631 216.765 158.53 217.528C162.428 218.292 165.436 218.521 167.554 218.217C169.676 217.913 172.528 216.842 176.112 215.004C179.696 213.167 179.17 213.401 181.291 213.097C183.294 212.809 188.561 216.923 192.216 218.616C195.87 220.308 198.763 221.264 200.895 221.484C202.908 221.691 205.876 221.338 209.798 220.426C213.721 219.513 216.748 219.166 218.88 219.386C221.012 219.605 223.876 220.558 227.471 222.244C229.03 222.932 229.885 223.765 230.596 224.407L230.519 210.509C229.771 209.774 229.354 209.537 228.805 209.28C225.21 207.593 222.347 206.64 220.215 206.421H220.215Z" fill="black"/>
</svg>
